X:1
T:Title
%%score { ( 1 3 ) | ( 2 4 ) }
L:1/8
M:4/4
K:C
V:1 treble nm="Grand Piano"
V:3 treble 
V:2 bass 
V:4 bass 
V:1
 z4 z2[Q:1/4=108] GG | [Ec]2 [Ec]2 [Ec]2 [CE][DF] | [EG]2 [EG]2 [EG]2 [EG][EG] | %3
 [Ec]2 [FB]2 [Gc]2 [EG]2 |[M:3/4] [FA]6 |[M:1/4] [FA][FA] |[M:4/4] B2 B2 B2 AB | %7
 [Ec]2 [Ec]2 [Ec]2 [Ge]>[Ge] | [Gd]2 [G^c]2 [^Fd]3 F |[M:3/4] G6 |[M:1/4] G2 |[M:4/4] d3 d d2 e>d | %12
 [Ec]2 [Ec]2 [Ec]2 G2 | A2 B2 c2 [Ad]2 |[M:3/4] e6 |[M:1/4] G>G |[M:4/4] e3 d [Ec]2 [Ge]>[Ge] | %17
 d2 c2 A2 c2 | c2 G2 d3 [Ec] |[M:3/4] [Ec]6 |] %20
V:2
 z4 z2 [C,E,C][C,E,C] | [C,G,]2 [C,G,]2 [C,G,]2 [C,G,][C,G,] | [C,C]2 [C,C]2 [C,C]2 [C,C][C,C] | %3
 [C,G,]2 [D,G,]2 [E,C]2 [C,C]2 |[M:3/4] [F,C]6 |[M:1/4] [F,C][D,C] | %6
[M:4/4][K:treble] [G,DF]2 [G,DF]2 [G,DF]2 [G,CF][G,F] | [C,G,]2 [C,G,]2 [C,G,]2 [C,C]>[C,C] | %8
 [D,B,]2 [E,_B,]2 [D,A,]3 [D,CD] |[M:3/4] [G,B,D]6 |[M:1/4] [G,B,]2 | %11
[M:4/4][K:treble] [G,B,F]3 [G,B,F] [G,B,F]2 [G,G]>[G,F] | [C,G,]2 [C,G,]2 [C,G,]2 G,2 | %13
 A,2 B,2 C2 [F,A,]2 |[M:3/4] B,2 C2 B,2 |[M:1/4] [G,B,]>[G,B,] | %16
[M:4/4][K:treble] [CG]3 [G,B,F][K:bass] [C,C]2 [C,C]>[E,C] | [F,A,F]2 [F,A,F]2 [F,CF]2 [^F,A,_E]2 | %18
 [G,E]2 [G,CE]2 [G,B,F]3[K:bass] [C,C] |[M:3/4] [C,C]6 |] %20
V:3
 x8 | x8 | x8 | x8 |[M:3/4] x6 |[M:1/4] x2 |[M:4/4] x8 | x8 | x8 |[M:3/4] x6 |[M:1/4] x2 | %11
[M:4/4] x8 | x8 | x8 |[M:3/4] ^G2 A2 G2 |[M:1/4] x2 |[M:4/4] x8 | x8 | x8 |[M:3/4] x6 |] %20
V:4
 x8 | x8 | x8 | x8 |[M:3/4] x6 |[M:1/4] x2 |[M:4/4][K:treble] x8 | x8 | x8 |[M:3/4] x6 | %10
[M:1/4] x2 |[M:4/4][K:treble] x8 | x8 | x8 |[M:3/4] E,6 |[M:1/4] x2 | %16
[M:4/4][K:treble] x4[K:bass] x4 | x8 | x7[K:bass] x |[M:3/4] x6 |] %20

